X: 667
T: Laicheng bainian
%%abc-version 2.0
%%abcx-abcm2ps-target-version 5.9.1 (29 Sep 2008)
%%abc-creator hum2abc beta
%%abcx-conversion-date 2013/10/02 07:52:30
%%abc-edited-by Helmut Schaffrath
%%humdrum-veritas 1250493733
%%humdrum-veritas-data 854493895
%%continueall 1
%%barnumbers 0
L: 1/8
M: 2/4
K: G
G A d g [I:setbarnb 1]| 
d A G E/ G/ | 
A2c E | 
D A,D2 | 
G B A/ B/ A/ G/ | 
D E/ D/B,2 | 
G B A/ B/ A/ G/ | 
D E/ D/B,2 | 
d B/ B/ d B | 
A3B | 
G A d d | 
B A G E/ G/ | 
B A A D | 
E> B A B | 
D4 |]  



